!!!OTL@@DE: Der Verschm&auml;hte
!!!ONB: Neures Volkslied
!!!OMD: Moderato
!!!OCL: Erk, Ludwig
!!!GCO: Deutscher Liederschatz, Band 1
**kern	**kern	**kern
*staff3	*staff2	*staff1
*Ipiano	*Ipiano	*Ivox
*clefF4	*clefG2	*clefG2
*k[b-]	*k[b-]	*k[b-]
*F:	*F:	*F:
*M3/4	*M3/4	*M3/4
*MM104	*MM104	*MM104
4r	4r	(8c/L
.	.	&(8a/J&))
=1	=1	=1
2.FF/	4r	4.a/
.	4A/ 4c/ 4f/	.
.	.	8g/
.	4A/ 4c/ 4f/	4a/
=2	=2	=2
2.CC/	4r	8b-\L
.	.	8e\J
.	4B-/ 4c/ 4e/	4e/
.	4B-/ 4c/ 4e/	8r
.	.	8b-\
=3	=3	=3
2.C/	4r	4.b-\
.	4B-/ 4c/ 4e/	.
.	.	8a/
.	4B-/ 4c/ 4e/	4b-\
=4	=4	=4
2FF/	4r	4cc\
.	4A/ 4c/ 4f/	4r
4r	4A/ 4c/ 4f/	4cc\
=5	=5	=5
2.F\	4r	4cc\
.	4A/ 4e-/ 4f/	4.bn\
.	4A/ 4e-/ 4f/	.
.	.	8cc\
=6	=6	=6
2BB-/	4r	(8ff\L
.	.	8g\J)
.	4B-/ 4d/	4g/
4r	4B-/ 4d/	8g/L
.	.	8a/J
=7	=7	=7
8C/	8B-/ 8c/ 8en/	8b-/L
8r	8r	8e/J
8C/	8B-/ 8c/ 8e/	8b-/L
8r	8r	8e/J
8C/	8B-/ 8c/ 8e/	8b-/L
8r	8r	8e/J
=8	=8	=8
4F\	4A/ 4c/ 4f/	4f/
4FF/	4r	4r
4r	4r	4a/
=9	=9	=9
2GG/	8r	4g/
.	(8G/L	.
.	8d/ 8f/	4.a/
.	8G/	.
4r	8d/ 8f/	.
.	8G/J)	8bn\
=10	=10	=10
2CC/ 2C/	8r	4.cc\
.	(8G/L	.
.	8c/ 8e/	.
.	8G/	8bn\
4r	8c/ 8e/	4a/
.	8G/J)	.
=11	=11	=11
4GG/	8r	4g/
.	(8G/L	.
4r	8Bn/ 8f/	4.ee\
.	8G/	.
4GG/	8B/ 8f/	.
.	8G/J)	8dd\
=12	=12	=12
8CC/	8c/ 8e/	2cc\
8r	8r	.
2C\ 2G\	2c/ 2e/ 2b-/	.
.	.	(8c/L
.	.	8a/J)
=13	=13	=13
2.F\	4r	4.a/
.	4A/ 4e-/ 4f/	.
.	.	8g/
.	4A/ 4e-/ 4f/	4a/
=14	=14	=14
2BB-/	4r	8dd/L
.	.	8g/J
.	4B-/ 4d/	4g/
4r	4B-/ 4d/	8g/L
.	.	8a/J
=15	=15	=15
8C/	8B-/ 8c/ 8en/	8b-/L
8r	8r	8e/J
8C/	8B-/ 8c/ 8e/	8b-/L
8r	8r	8e/J
8C/	8B-/ 8c/ 8e/	8b-/L
8r	8r	8e/J
=16	=16	=16
4F\	4A/ 4c/ 4f/	4f/
4FF/	4r	4r
4r	4r	4cc\
=17	=17	=17
*^	*	*
4r	2.FF\	(8A/ 8e-/L	4.cc\
.	.	8F/	.
4r	.	8A/	.
.	.	8c/	8bn\
4F/	.	8f/	4cc\
.	.	8e-/) 8a/J	.
*v	*v	*	*
=18	=18	=18
*	*^	*
2.BB-;\ 2.B-;\	4b-/	(2d\	8ff;\L
.	.	.	8g\J
.	2g;/	.	8g/
.	.	.	8r
.	.	4d-\)	8g/L
.	.	.	8a/J
*	*v	*v	*
=19	=19	=19
8C\ 8B-\	8c/ 8e/	8b-/L
8r	8r	8e/J
8C\ 8B-\	8c/ 8e/	8dd/L
8r	8r	8e/J
8C\ 8B-\	8c/ 8e/	8cc/L
8r	8r	8e/J
=20	=20	=20
4F\ 4A\	4c/ 4f/	4f/
4FF/	4r	4r
4r	(8a/L	4r
.	8b-/J)	.
=21	=21	=21
4FF/	(8dd\L	2.r
.	8cc\	.
4C\ 4F\ 4A\	8bn\	.
.	8cc\J	.
4C\ 4F\ 4A\	8.ff\ 8.aa\L	.
.	16cc\Jk)	.
=22	=22	=22
4CC/	(8a/L	2.r
.	8b-/J	.
4C\ 4G\ 4B-\	4.ee\ 4.gg\	.
4C\ 4G\ 4B-\	.	.
.	8dd\ 8ff\)	.
=23	=23	=23
4CC/	(8cc/ 8ee/L	2.r
.	8g/	.
4C\ 4E\ 4G\	8cc/ 8ee/	.
.	8b-/ 8dd/	.
*^	*	*
(8G/L	4C\	8g/ 8b-/	.
8B-/J)	.	8e/J)	.
=24	=24	=24	=24
4A/	4F\	4f/	4r
4ryy	4r	4r	4r
*v	*v	*	*
==	==	==
*-	*-	*-
!!!ENC: Craig Stuart Sapp
!!!END: 2004/06/03/
!!!EFL: 073/651
